X:3037
T:Cheshire Waltz, The
R:Waltz
C:Trad.
O:England
Z:Paul Hardy's Session Tunebook 2022 (see www.paulhardy.net). Creative Commons cc by-nc-sa licenced.
M:3/4
L:1/8
Q:1/4=140
K:D
Ad|"D"f2fgfe|"Bm"d2dedc|"G"B2c2d2|"D"A4f2|"Em"g2f2e2|"A"b2a2c2|"D"e2d2d2|d4:|
|:g2|"D"f2afed|"A"c2e2g2|"D"fedBAF|D2F2A2|"Em"G2B2f2|g2e2d2|"A"c2edcB|A4A2|
"D"f2fgfe|"Bm"d2dedc|"G"B2c2d2|"D"A4f2|"Em"g2f2e2|"A"b2a2c2|"D"e2d2d2|d4:|
|:AG|"D"F2A2d2|"Bm"d2c2B2|"A"c2e2a2|"G"g4f2|"Em"g3fg2|B2e2d2|"A"c2d2B2|A4AG|
"D"F2A2d2|"Bm"d2c2B2|"A"c2e2a2|"G"g4f2|"Em"g3fg2|B2e2d2|"A"dcBABc|"D"d4:|

